svg/transport/wiper_fill.svg

<?xml version="1.0" encoding="UTF-8"?>
<svg width="24px" height="24px" viewBox="0 0 24 24" version="1.1" xmlns="http://www.w3.org/2000/svg" xmlns:xlink="http://www.w3.org/1999/xlink">
    <title>wiper_fill</title>
    <g id="页面-1" stroke="none" stroke-width="1" fill="none" fill-rule="evenodd">
        <g id="Transport" transform="translate(-672.000000, -240.000000)" fill-rule="nonzero">
            <g id="wiper_fill" transform="translate(672.000000, 240.000000)">
                 <path d="M24,0 L24,24 L0,24 L0,0 L24,0 Z M12.5934901,23.257841 L12.5819402,23.2595131 L12.5108777,23.2950439 L12.4918791,23.2987469 L12.4918791,23.2987469 L12.4767152,23.2950439 L12.4056548,23.2595131 C12.3958229,23.2563662 12.3870493,23.2590235 12.3821421,23.2649074 L12.3780323,23.275831 L12.360941,23.7031097 L12.3658947,23.7234994 L12.3769048,23.7357139 L12.4804777,23.8096931 L12.4953491,23.8136134 L12.4953491,23.8136134 L12.5071152,23.8096931 L12.6106902,23.7357139 L12.6232938,23.7196733 L12.6232938,23.7196733 L12.6266527,23.7031097 L12.609561,23.275831 C12.6075724,23.2657013 12.6010112,23.2592993 12.5934901,23.257841 L12.5934901,23.257841 Z M12.8583906,23.1452862 L12.8445485,23.1473072 L12.6598443,23.2396597 L12.6498822,23.2499052 L12.6498822,23.2499052 L12.6471943,23.2611114 L12.6650943,23.6906389 L12.6699349,23.7034178 L12.6699349,23.7034178 L12.678386,23.7104931 L12.8793402,23.8032389 C12.8914285,23.8068999 12.9022333,23.8029875 12.9078286,23.7952264 L12.9118235,23.7811639 L12.8776777,23.1665331 C12.8752882,23.1545897 12.8674102,23.1470016 12.8583906,23.1452862 L12.8583906,23.1452862 Z M12.1430473,23.1473072 C12.1332178,23.1423925 12.1221763,23.1452606 12.1156365,23.1525954 L12.1099173,23.1665331 L12.0757714,23.7811639 C12.0751323,23.7926639 12.0828099,23.8018602 12.0926481,23.8045676 L12.108256,23.8032389 L12.3092106,23.7104931 L12.3186497,23.7024347 L12.3186497,23.7024347 L12.3225043,23.6906389 L12.340401,23.2611114 L12.337245,23.2485176 L12.337245,23.2485176 L12.3277531,23.2396597 L12.1430473,23.1473072 Z" id="MingCute" fill-rule="nonzero"></path>
                <path d="M12.2319,15.0018 L12.6765,16.6609 C13.165,16.9082 13.5,17.415 13.5,18.0001 C13.5,18.8285 12.8284,19.5 12,19.5 C11.1715,19.5 10.5,18.8285 10.5,18.0001 C10.5,17.6968 10.5899,17.4146 10.7447,17.1786 L10.1885,15.103 C10.6421,15.052525 11.0962625,15.019825 11.5484984,15.0066297 L12,15 C12.0772,15 12.1546,15.0006 12.2319,15.0018 Z M12.0001,4 C14.4792913,4 16.4162662,4.28208367 17.8840715,4.64696903 L18.3827583,4.77886573 C18.5425728,4.82376101 18.6960126,4.86947784 18.8431966,4.91569172 L19.2661,5.0555 L19.2661,5.0555 L19.6977297,5.21026295 C19.7644751,5.23498735 19.8286971,5.25918497 19.8905054,5.2828677 L20.2332667,5.41888037 L20.2332667,5.41888037 L20.5233582,5.54310606 C20.56761,5.56285979 20.6098863,5.58214617 20.6502968,5.60097708 L20.8712476,5.70859211 L20.8712476,5.70859211 L21.0526805,5.80584657 C21.0799184,5.82122396 21.1057289,5.83619344 21.1302216,5.85076688 L21.2622413,5.93355029 L21.2622413,5.93355029 L21.4524429,6.07288517 L21.4524429,6.07288517 L21.6248,6.21913 L21.6248,6.21913 C21.9625,6.48935 22.0883,6.94611 21.9364,7.35112 L18.9364,15.3511 C18.7483,15.8528 18.1856,16.1139 17.6797,15.9473 C15.9386,15.3815 14.065,15.0293 12.2319,15.0018 L10.6366,9.04783 C10.4936,8.51436 9.94531,8.19778 9.41184,8.34072 C8.87837,8.48366 8.56179,9.032 8.70473,9.56546 L10.1885,15.103 C9.06760571,15.2276286 7.9504951,15.4607714 6.87537434,15.7761055 L6.31629,15.9487 C5.80607,16.1186 5.25256,15.8547 5.06373,15.3511 L2.06373,7.35112 C1.91185,6.94611 2.03759,6.48935 2.37536,6.21913 C3.05191,5.67789 3.92824,5.33578 4.73404,5.0555 C5.00361913,4.96173304 5.29774631,4.86865629 5.61737342,4.77886573 L6.11605802,4.64696903 C7.58385928,4.28208367 9.52084957,4 12.0001,4 Z" id="形状" fill="#09244B"></path>
            </g>
        </g>
    </g>
</svg>

<svg xmlns="http://www.w3.org/2000/svg" width="24" height="24"><g fill="none" fill-rule="nonzero"><path d="M24 0v24H0V0h24ZM12.593 23.258l-.011.002-.071.035-.02.004-.014-.004-.071-.035c-.01-.004-.019-.001-.024.005l-.004.01-.017.428.005.02.01.013.104.074.015.004.012-.004.104-.074.012-.016.004-.017-.017-.427c-.002-.01-.009-.017-.017-.018Zm.265-.113-.013.002-.185.093-.01.01-.003.011.018.43.005.012.008.007.201.093c.012.004.023 0 .029-.008l.004-.014-.034-.614c-.003-.012-.01-.02-.02-.022Zm-.715.002a.023.023 0 0 0-.027.006l-.006.014-.034.614c0 .012.007.02.017.024l.015-.002.201-.093.01-.008.004-.011.017-.43-.003-.012-.01-.01-.184-.092Z"/><path fill="#09244B" d="m12.232 15.002.445 1.659a1.5 1.5 0 1 1-1.932.518l-.556-2.076c.453-.05.907-.083 1.36-.096L12 15c.077 0 .155 0 .232.002ZM12 4c2.48 0 4.416.282 5.884.647l.499.132c.16.045.313.09.46.137l.423.14.432.154.193.073.342.136.29.124.127.058.221.108.182.097.077.045.132.083.19.139.173.146a1 1 0 0 1 .311 1.132l-3 8a1.01 1.01 0 0 1-1.256.596c-1.741-.565-3.615-.918-5.448-.945l-1.595-5.954a1 1 0 0 0-1.932.517l1.483 5.538c-1.12.125-2.238.358-3.313.673l-.559.173a1 1 0 0 1-1.252-.598l-3-8a1 1 0 0 1 .311-1.132c.677-.541 1.553-.883 2.359-1.163.27-.094.564-.187.883-.277l.5-.132C7.583 4.282 9.52 4 12 4Z"/></g></svg>
